!!!!SEGMENT: pl-kk--kk-i-67--001_anonim--missa-kyrie.krn
!!!cenid: 17xx:2267
!!!COM: Anonim
!!!COM-rismID: pe30004985
!!!CDT:
!!!CNT:
!!!OPR: Missa
!!!OTL: Kyrie
!!!OMV: 001
!!!PDT:
!!!AGN: Sacred; Mass
!!!SMS-siglum: PL-Kk
!!!SMS-shelfmark: Kk.I.67
!!!SMS-shelfwork: 001-001 M
!!!SMS-variant:
!!!SMS-altvar:
!!!NIFC-rismSourceID: 1001154623
!!!NIFC-rismChildID: 1001154623
!!!NIFC-islandoraID: pl-kk:2825
!!!URL-pdf-islandora: https://repozytorium.nifc.pl/islandora/object/pl-kk%3A2825/datastream/PDF/view
!!!URL-scan: https://polish.musicsources.pl/pl/lokalizacje/galeria/rekopisy/6138 @EN{Scan on Polish Music Sources Website} @PL{Skany w portalu Dziedzictwo Muzyki Polskiej w otwartym dostępie}
!!!IIIF:
!!!ONB-nifc: UWAGA: części Mszy: 1. Kyrie, 2. Et in terra, 3. Credo, 4. Sanctus, 5. Agnus Dei, 6. Dona nobis
!!!AIN: 1 alto 1 empty 1 tenor 1 vox
!!!key:
**kern	**text	**dynam	**kern	**text	**dynam	**kern	**text	**dynam	**kern	**text	**dynam
*part4	*part4	*part4	*part3	*part3	*part3	*part2	*part2	*part2	*part1	*part1	*part1
*staff4	*staff4	*	*staff3	*staff3	*	*staff2	*staff2	*	*staff1	*staff1	*
*Iempty	*	*	*Itenor	*	*	*Ialto	*	*	*Ivox	*	*
*I"Baſsô	*	*	*I"Tenore	*	*	*I"Altô	*	*	*I"Cantô	*	*
*I'B	*	*	*I'T	*	*	*I'A	*	*	*I'S	*	*
*clefF4	*	*	*clefC4	*	*	*clefC3	*	*	*clefC1	*	*
*k[b-e-a-]	*	*	*k[b-e-a-]	*	*	*k[b-e-a-]	*	*	*k[b-e-a-]	*	*
*c:	*	*	*c:	*	*	*c:	*	*	*c:	*	*
*M2/2	*	*	*M2/2	*	*	*M2/2	*	*	*M2/2	*	*
*met(c|)	*	*	*met(c|)	*	*	*met(c|)	*	*	*met(c|)	*	*
*2\right	*	*	*2\right	*	*	*2\right	*	*	*2\right	*	*
=1	=1	=1	=1	=1	=1	=1	=1	=1	=1	=1	=1
!LO:TX:t=P:problem=kolejność znaków&colon;E-, A-, BB-	!	!	!	!	!	!	!	!	!LO:TX:t=P:problem=all2\right&colon; global	!	!
!LO:TX:a:t=Andante	!	!	!LO:TX:a:t=Andante	!	!	!LO:TX:a:t=Andante	!	!	!LO:TX:a:t=Andante	!	!
4C\	Ky-	.	2.c\	Ky-	.	2.g\	Ky-	.	2.ee-\	Ky-	.
4E-\	.	.	.	.	.	.	.	.	.	.	.
4G\	.	.	.	.	.	.	.	.	.	.	.
4E-\	-ri-	.	4c\	-ri-	.	4g\	-ri-	.	4ee-\	-ri-	.
=2	=2	=2	=2	=2	=2	=2	=2	=2	=2	=2	=2
4C/	-e	.	4c\	-e	.	4g\	-e	.	4ee-\	-e	.
4r	.	.	4r	.	.	4g\	e-	.	4ee-\	e-	.
2r	.	.	2r	.	.	8g\L	-lei-	.	8ee-\L	-lei-	.
.	.	.	.	.	.	8f\	.	.	8dd\J	.	.
.	.	.	.	.	.	8a-\	.	.	8ff\L	.	.
.	.	.	.	.	.	8g\J	.	.	8ee-\J	.	.
=3	=3	=3	=3	=3	=3	=3	=3	=3	=3	=3	=3
4GG/	Ky-	.	2.Bn\	Ky-	.	4f\	-son	.	4dd\	-son	.
4BBn/	.	.	.	.	.	2f\	Ky-	.	2dd\	Ky-	.
4D/	.	.	.	.	.	.	.	.	.	.	.
4BB/	-ri-	.	4B\	-ri-	.	4g\	-ri-	.	4dd\	-ri-	.
=4	=4	=4	=4	=4	=4	=4	=4	=4	=4	=4	=4
!	!	!	!LO:SIC:v:s=4Bn\	!	!	!	!	!	!	!	!
4GG/	-e	.	4B-\	-e	.	4g\	-e	.	4dd\	-e	.
!	!	!	!LO:SIC:v:s=4Bn\	!	!	!	!	!	!	!	!
4r	.	.	4B-\	e-	.	4g\	e-	.	4dd\	e-	.
!	!	!	!LO:SIC:v:s=8Bn\	!	!	!	!	!	!	!	!
2r	.	.	8B-\L	-lei-	.	2g\	-lei-	.	8dd\L	-lei-	.
.	.	.	8c\	.	.	.	.	.	8ee-\	.	.
.	.	.	8d\	.	.	.	.	.	8ff\	.	.
!	!	!	!LO:SIC:v:s=8Bn\	!	!	!	!	!	!	!	!
.	.	.	8B-\J	.	.	.	.	.	8dd\J	.	.
=5	=5	=5	=5	=5	=5	=5	=5	=5	=5	=5	=5
(4C\	Ky-	.	4c\	-son	.	4g\	-son	.	4ee-\	-son	.
4E-\)	.	.	2c\	Ky-	.	2g\	Ky-	.	2ee-\	Ky-	.
4G\	.	.	.	.	.	.	.	.	.	.	.
4c\	-ri-	.	4c\	-ri-	.	4g\	-ri-	.	4ee-\	-ri-	.
=6	=6	=6	=6	=6	=6	=6	=6	=6	=6	=6	=6
!	!	!	!	!	!	!	!	!	!LO:LB:g=original	!	!
2G\	-e	.	2Bn\	-e	.	2g\	-e	.	2dd\	-e	.
2G\	e-	.	2B\	e-	.	2g\	e-	.	2dd\	e-	.
=7	=7	=7	=7	=7	=7	=7	=7	=7	=7	=7	=7
!LO:LB:g=original	!	!	!LO:LB:g=original	!	!	!LO:LB:g=original	!	!	!	!	!
4c\	-lei-	.	4c\	-lei-	.	4g\	-lei-	.	4ee-\	-lei-	.
4A-\	.	.	4Bn\	.	.	4f\	.	.	4dd\	.	.
4G\	.	.	2c\	.	.	4g\	.	.	2ee-\	.	.
4F#X\	.	.	.	.	.	4an\	.	.	.	.	.
=8	=8	=8	=8	=8	=8	=8	=8	=8	=8	=8	=8
!	!	!	!LO:SIC:v:s=2Bn	!	!	!	!	!	!	!	!
2G\	-son	.	2B-\	-son	.	2g\	-son	.	2dd\	-son	.
2r;	.	.	2r;	.	.	2r;	.	.	2r;	.	.
=9	=9	=9	=9	=9	=9	=9	=9	=9	=9	=9	=9
4.Fn\	Ky-	.	4.Bn\	Ky-	.	4.a-X\	Ky-	.	4.dd\	Ky-	.
8F\	-ri-	.	8B\	-ri-	.	8a-\	-ri-	.	8dd\	-ri-	.
4F\	-e	.	4B\	-e	.	4a-\	-e	.	4dd\	-e	.
4F\	e-	.	4B\	e-	.	4a-\	e-	.	4dd\	e-	.
=10	=10	=10	=10	=10	=10	=10	=10	=10	=10	=10	=10
4E-\	-lei-	.	4c\	-lei-	.	(4g\	-lei-	.	(4cc\	-lei-	.
!	!	!	!LO:SIC:v:s=4Bn	!	!	!	!	!	!	!	!
4D\	.	.	4B-\	.	.	4f\)	.	.	4dd\)	.	.
!	!	!	!	!	!	!	!	!	!LO:N:vis=8	!	!
4C/	-son	.	4c\	-son	.	4g\	-son	.	4ee-\	-son	.
!	!	!	!LO:SIC:v:s=4Bn	!	!	!	!	!	!	!	!
4GG/	e-	.	4B-\	e-	.	4g\	e-	.	4dd\	e-	.
=11	=11	=11	=11	=11	=11	=11	=11	=11	=11	=11	=11
2C/	-lei-	.	4c\	-lei-	.	1g	-lei-	.	4ee-\	-lei-	.
!	!	!	!LO:SIC:v:s=8Bn	!	!	!	!	!	!	!	!
.	.	.	8B-\L	.	.	.	.	.	8dd\L	.	.
.	.	.	8c\J	.	.	.	.	.	8ee-\J	.	.
4BBn/	.	.	4d\	.	.	.	.	.	4ff\	.	.
4C/	.	.	4c\	.	.	.	.	.	4ee-\	.	.
=12	=12	=12	=12	=12	=12	=12	=12	=12	=12	=12	=12
!	!	!	!	!	!	!	!	!	!LO:LB:g=original	!	!
2G\	-son	.	2Bn\	-son	.	2g\	-son	.	2dd\	-son	.
4r	.	.	4r	.	.	4r	.	.	4r	.	.
4G\	e-	.	4B\	e-	.	4g\	e-	.	4dd\	e-	.
=13	=13	=13	=13	=13	=13	=13	=13	=13	=13	=13	=13
!LO:LB:g=original	!	!	!LO:LB:g=original	!	!	!LO:LB:g=original	!	!	!	!	!
2F#X\	-lei-	.	2c\	-lei-	.	2an\	-lei-	.	2ee-\	-lei-	.
4G\	-son	.	4Bn\	-son	.	4g\	-son	.	4dd\	-son	.
4G\	e-	.	4B\	e-	.	4g\	e-	.	4dd\	e-	.
=14	=14	=14	=14	=14	=14	=14	=14	=14	=14	=14	=14
!LO:SIC:v:s=4F#\	!	!	!	!	!	!LO:SIC:v:s=4an\	!	!	!	!	!
4F\	-lei-	.	4c\	-lei-	.	4a-\	-lei-	.	4ee-\	-lei-	.
!	!	!	!LO:SIC:v:s=4Bn	!	!	!	!	!	!	!	!
4G\	-son	.	4B-\	-son	.	4g\	-son	.	4dd\	-son	.
2r	.	.	2r	.	.	2r	.	.	2r	.	.
=15	=15	=15	=15	=15	=15	=15	=15	=15	=15	=15	=15
8E-\L	Chri-	.	4e-\	Chri-	.	4e-X\	Chri-	.	4b-\	Chri-	.
8G\J	.	.	.	.	.	.	.	.	.	.	.
8B-\L	.	.	4e-\	.	.	4g\	.	.	4b-\	.	.
8G\J	.	.	.	.	.	.	.	.	.	.	.
4E-\	-ste	.	4e-\	-ste	.	8g\L	-ste	.	8b-\L	-ste	.
.	.	.	.	.	.	8a-X\J	.	.	8cc\J	.	.
4D\	e-	.	4B-\	e-	.	8g\L	e-	.	8b-\L	e-	.
.	.	.	.	.	.	8f\J	.	.	8a-\J	.	.
=16	=16	=16	=16	=16	=16	=16	=16	=16	=16	=16	=16
4D\	-lei-	.	4B-\	-lei-	.	4f\	-lei-	.	4a-\	-lei-	.
4E-\	-son	.	4B-\	-son	.	4e-\	-son	.	4g\	-son	.
4r	.	.	4r	.	.	4r	.	.	4r	.	.
4E-\	e-	.	4B-\	e-	.	8g\L	e-	.	8b-\L	e-	.
.	.	.	.	.	.	8e-\J	.	.	8g\J	.	.
=17	=17	=17	=17	=17	=17	=17	=17	=17	=17	=17	=17
4BB-/	-lei-	.	4A-X\	-lei-	.	4d\	-lei-	.	4f/	-lei-	.
8BB-/	-son	.	8A-\	-son	.	8d\	-son	.	8f/	-son	.
8BB-/	e-	.	8A-\	e-	.	8e-\	e-	.	8g/	e-	.
!	!	!	!	!	!	!	!	!	!LO:LB:g=original	!	!
4D/	-lei-	.	2B-\	-lei-	.	8g\L	-lei-	.	8b-/L	-lei-	.
.	.	.	.	.	.	8f\	.	.	8a-/	.	.
4BB-/	.	.	.	.	.	8e-\	.	.	8g/	.	.
.	.	.	.	.	.	8d\J	.	.	8f/J	.	.
=18	=18	=18	=18	=18	=18	=18	=18	=18	=18	=18	=18
!LO:LB:g=original	!	!	!	!	!	!LO:LB:g=original	!	!	!	!	!
4E-\	-son	.	4B-\	-son	.	4e-\	-son	.	4g\	-son	.
4E-\	e-	.	4G\	Chri-	.	4e-\	e-	.	4b-\	Chri-	.
4E-\	-lei-	.	4A-\	.	.	2e-\	-lei-	.	4cc\	.	.
4G\	.	.	4B-\	.	.	.	.	.	4dd-X\	.	.
=19	=19	=19	=19	=19	=19	=19	=19	=19	=19	=19	=19
!	!	!	!LO:LB:g=original	!	!	!	!	!	!	!	!
4A-\	-son	.	4A-\	-ste	.	4e-\	-son	.	4cc\	-ste	.
4F\	e-	.	4An\	e-	.	4f\	e-	.	4cc\	e-	.
4F\	-lei-	.	4B-\	-lei-	.	2f\	-lei-	.	4ddn\	-lei-	.
4An\	.	.	4c\	.	.	.	.	.	4ee-\	.	.
=20	=20	=20	=20	=20	=20	=20	=20	=20	=20	=20	=20
.	.	.	.	.	.	.	.	.	8qqee-/	.	.
2B-\	-son	.	2B-\	-son	.	2f\	-son	.	2dd\	-son	.
4r	.	.	4r	.	.	4r	.	.	4r	.	.
4BB-/	e-	.	4B-\	e-	.	8f\L	e-	.	8dd\L	e-	.
.	.	.	.	.	.	8g\J	.	.	8ee-\J	.	.
=21	=21	=21	=21	=21	=21	=21	=21	=21	=21	=21	=21
2BB-/	-lei-	.	4d\	-lei-	.	4a-\	-lei-	.	4ff\	-lei-	.
.	.	.	2.B-\	.	.	2g\	.	.	2ee-\	.	.
2B-\	.	.	.	.	.	.	.	.	.	.	.
.	.	.	.	.	.	4f\	.	.	4dd\	.	.
=22	=22	=22	=22	=22	=22	=22	=22	=22	=22	=22	=22
4E-\	-son	.	4B-\	-son	.	4g\	-son	.	4ee-\	-son	.
4F\	e-	.	4r	.	.	8f\L	e-	.	8dd\L	e-	.
.	.	.	.	.	.	8e-\J	.	.	8cc\J	.	.
!	!	!	!	!	!	!	!	!	!LO:LB:g=original	!	!
8G\L	-lei-	.	4r	.	.	8d\L	-lei-	.	8b-\L	-lei-	.
8A-\	.	.	.	.	.	8a-\	.	.	8cc\	.	.
8G\	.	.	4B-\	e-	.	8g\	.	.	8b-\	.	.
8A-\J	.	.	.	.	.	8f\J	.	.	8a-\J	.	.
=23	=23	=23	=23	=23	=23	=23	=23	=23	=23	=23	=23
2B-\	.	.	1B-	-lei-	.	2e-\	.	.	2g/	.	.
2BB-/	.	.	.	.	.	2d\	.	.	2f/	.	.
=24	=24	=24	=24	=24	=24	=24	=24	=24	=24	=24	=24
!LO:LB:g=original	!	!	!	!	!	!LO:LB:g=original	!	!	!	!	!
2E-\	son	.	2B-\	-son	.	2e-\	-son.	.	2g/	-son	.
2r	.	.	2r	.	.	2r	.	.	2r	.	.
=25	=25	=25	=25	=25	=25	=25	=25	=25	=25	=25	=25
!	!	!LO:DY:a:t=p&colon;	!	!	!LO:DY:a:t=p&colon;	!	!	!LO:DY:a:t=p&colon;	!	!	!LO:DY:a:t=p&colon;
4.En\	Ky-	p	4.B-\	Ky-	p	4.g\	Ky-	p	4.dd-X\	Ky-	p
8E\	-ri-	.	8B-\	-ri-	.	8g\	-ri-	.	8dd-\	-ri-	.
4E\	-e	.	4B-\	-e	.	4g\	-e	.	4dd-\	-e	.
4E\	e-	.	4B-\	e-	.	4g\	e-	.	4dd-\	e-	.
=26	=26	=26	=26	=26	=26	=26	=26	=26	=26	=26	=26
!	!	!	!LO:LB:g=original	!	!	!	!	!	!	!	!
4F\	-lei-	.	4A-\	-lei-	.	4a-\	-lei-	.	4cc\	-lei-	.
4G\	.	.	4B-\	.	.	4g\	.	.	4b-\	.	.
4A-\	-son	.	4c\	-son	.	4f\	-son	.	4a-\	-son	.
4F\	e-	.	4A-\	e-	.	4a-\	e-	.	4cc\	e-	.
=27	=27	=27	=27	=27	=27	=27	=27	=27	=27	=27	=27
4B-\	-lei-	.	4d-X\	-lei-	.	2g\	-lei-	.	4b-\	-lei-	.
4G\	.	.	4B-\	.	.	.	.	.	4dd-X\	.	.
4c\	.	.	2c\	.	.	2en\	.	.	2g\	.	.
4C/	.	.	.	.	.	.	.	.	.	.	.
=28	=28	=28	=28	=28	=28	=28	=28	=28	=28	=28	=28
2F\	-son	.	2c\	-son	.	2f\	-son	.	4a-\	-son	.
.	.	.	.	.	.	.	.	.	4r	.	.
2r	.	.	2r	.	.	2r	.	.	2r	.	.
=29	=29	=29	=29	=29	=29	=29	=29	=29	=29	=29	=29
!	!	!	!	!	!	!	!	!	!LO:LB:g=original	!	!
4.F#X\	Ky-	.	4.c\	Ky-	.	4.an\	Ky-	.	4.ee-\	Ky-	.
8F#\	-ri-	.	8c\	-ri-	.	8a\	-ri-	.	8ee-\	-ri-	.
4F#\	-e	.	4c\	-e	.	4a\	-e	.	4ee-\	-e	.
4F#\	e-	.	4c\	e-	.	4a\	e-	.	4ee-\	e-	.
=30	=30	=30	=30	=30	=30	=30	=30	=30	=30	=30	=30
!LO:LB:g=original	!	!	!	!	!	!LO:LB:g=original	!	!	!	!	!
4G\	-lei-	.	4B-\	-lei-	.	4b-\	-lei-	.	4ddn\	-lei-	.
!	!	!	!	!	!	!LO:SIC:v:s=4an	!	!	!	!	!
4An\	.	.	4c\	.	.	4a-\	.	.	4cc\	.	.
4B-\	-son	.	4dn\	-son	.	4g\	-son	.	4b-\	-son	.
4G\	e-	.	4B-\	e-	.	4b-\	e-	.	4dd\	e-	.
=31	=31	=31	=31	=31	=31	=31	=31	=31	=31	=31	=31
!	!	!	!	!	!	!LO:SIC:v:s=2an	!	!	!	!	!
4c\	-lei-	.	2e-X\	-lei-	.	2a-\	-lei-	.	2cc\	-lei-	.
!LO:SIC:v:s=4An	!	!	!	!	!	!	!	!	!	!	!
4A-\	.	.	.	.	.	.	.	.	.	.	.
4d\	.	.	2d\	.	.	4g\	.	.	4b-\	.	.
4D\	.	.	.	.	.	4f#X\	.	.	4an\	.	.
=32	=32	=32	=32	=32	=32	=32	=32	=32	=32	=32	=32
!	!	!	!LO:LB:g=original	!	!	!	!	!	!	!	!
2G\	-son.	.	2d\	-son.	.	2g\	-son.	.	2b-\	-son	.
2r	.	.	2r	.	.	2r	.	.	2r	.	.
=33	=33	=33	=33	=33	=33	=33	=33	=33	=33	=33	=33
!	!	!LO:DY:a:t=for	!	!	!LO:DY:a:t=for	!	!	!LO:DY:a:t=for&colon;	!	!	!LO:DY:a:t=for
4.G\	Ky-	f	4.Bn\	Ky-	f	4.fn\	Ky-	f	4.dd\	Ky-	f
8G\	-ri-	.	8B\	-ri-	.	8f\	-ri-	.	8dd\	-ri-	.
4G\	-e	.	4B\	-e	.	4f\	-e	.	4dd\	-e	.
4F\	e-	.	4B\	e-	.	4a-\	e-	.	4dd\	e-	.
=34	=34	=34	=34	=34	=34	=34	=34	=34	=34	=34	=34
4E-\	-lei-	.	2G/	-lei-	.	4g\	-lei-	.	(4cc\	-lei-	.
4D\	.	.	.	.	.	4f\	.	.	4bn\)	.	.
4C/	-son	.	4G/	-son	.	4e-\	-son	.	4cc\	-son	.
4BBn/	e-	.	4G/	e-	.	4d\	e-	.	4b\	e-	.
=35	=35	=35	=35	=35	=35	=35	=35	=35	=35	=35	=35
!	!	!	!	!	!	!	!	!	!LO:LB:g=original	!	!
8C\L	-lei-	.	2G/	-lei-	.	8e-\L	-lei-	.	2cc\	-lei-	.
8D\	.	.	.	.	.	8f\	.	.	.	.	.
8E-\	.	.	.	.	.	8g\	.	.	.	.	.
8F\J	.	.	.	.	.	8a-\J	.	.	.	.	.
!LO:LB:g=original	!	!	!	!	!	!	!	!	!	!	!
4G\	.	.	2Bn\	.	.	2g\	.	.	2dd\	.	.
4GG/	.	.	.	.	.	.	.	.	.	.	.
=36	=36	=36	=36	=36	=36	=36	=36	=36	=36	=36	=36
!	!	!	!	!	!	!LO:LB:g=original	!	!	!	!	!
2C/	-son	.	2c\	-son	.	2g\	-son	.	2ee-\	-son	.
2c\	e-	.	2c\	e-	.	2g\	e-	.	2ee-\	e-	.
=37	=37	=37	=37	=37	=37	=37	=37	=37	=37	=37	=37
1A-X	-lei-	.	[1c	-lei-	.	1f	-lei-	.	1cc	-lei-	.
=38	=38	=38	=38	=38	=38	=38	=38	=38	=38	=38	=38
1F#X	.	.	1c]	.	.	1an	.	.	1ee-	.	.
=39	=39	=39	=39	=39	=39	=39	=39	=39	=39	=39	=39
2G\	-son	.	2Bn\	-son	.	2g\	-son	.	2dd\	-son	.
2G\	e-	.	2c\	e-	.	2g\	e-	.	2ee-\	e-	.
=40	=40	=40	=40	=40	=40	=40	=40	=40	=40	=40	=40
1G	-lei-	.	2c\	-lei-	.	1g	-lei-	.	2ee-\	-lei-	.
!	!	!	!LO:SIC:v:s=2Bn	!	!	!	!	!	!	!	!
.	.	.	2B-\	.	.	.	.	.	2dd\	.	.
=41	=41	=41	=41	=41	=41	=41	=41	=41	=41	=41	=41
1C	-son.	.	1c	-son	.	1g	-son	.	1ee-	-son	.
=42||	=42||	=42||	=42||	=42||	=42||	=42||	=42||	=42||	=42||	=42||	=42||
*k[b-e-a-]	*	*	*k[b-e-a-]	*	*	*k[b-e-a-]	*	*	*k[b-e-a-]	*	*
*M3/2	*	*	*M3/2	*	*	*M3/2	*	*	*M3/2	*	*
!LO:LB:g=original	!	!	!	!	!	!	!	!	!	!	!
!LO:TX:b:t=Christe	!	!LO:LB:g=original	!LO:TX:b:t=Christe	!LO:LB:g=original	!	!LO:TX:b:t=Christe	!	!	!LO:TX:b:t=Christe	!	!
!LO:TX:a:t=andte	!	!	!LO:TX:a:t=andte	!	!	!LO:TX:a:t=andte	!	!	!LO:TX:a:t=andte	!	!
4E-\	Chri-	.	4G/	Chri-	.	2B-/	Chri-	.	2ee-\	Chri-	.
4F\	.	.	4A-/	.	.	.	.	.	.	.	.
4G\	-ste	.	4B-/	-ste	.	2e-\	-ste	.	2b-\	-ste	.
4F\	.	.	4A-/	.	.	.	.	.	.	.	.
4G\	e-	.	4B-/	e-	.	2g\	e-	.	2b-\	e-	.
4E-\	.	.	4G/	.	.	.	.	.	.	.	.
=43	=43	=43	=43	=43	=43	=43	=43	=43	=43	=43	=43
4E-\	-lei-	.	2e-\	-lei-	.	2g\	-lei-	.	2b-\	-lei-	.
4G\	.	.	.	.	.	.	.	.	.	.	.
4B-\	.	.	2d\	.	.	2f\	.	.	2a-\	.	.
4BB-/	.	.	.	.	.	.	.	.	.	.	.
2E-\	-son	.	2B-\	-son	.	2e-\	-son	.	2g\	-son	.
=44	=44	=44	=44	=44	=44	=44	=44	=44	=44	=44	=44
2BB-/	Chri-	.	2F/	Chri-	.	2d\	Chri-	.	2b-\	Chri-	.
2B-\	-ste	.	2B-\	-[[st]]-	.	2f\	-ste	.	2dd\	-ste	.
2B-\	e-	.	2d\	-ste e-	.	2a-X\	e-	.	2ff\	e-	.
=45	=45	=45	=45	=45	=45	=45	=45	=45	=45	=45	=45
1B-	-lei-	.	2d\	-lei-	.	2a-\	-lei-	.	2ff\	-lei-	.
.	.	.	2e-\	.	.	2g\	.	.	2ee-\	.	.
2BB-/	-son	.	2B-\	-son	.	2f\	-son	.	2dd\	-son	.
=46	=46	=46	=46	=46	=46	=46	=46	=46	=46	=46	=46
4E-\	Chri-	.	4G\	Chri-	.	4g\	Chri-	.	4cc\	Chri-	.
4D\	.	.	4B-\	.	.	4f\	.	.	4b-\	.	.
4E-\	-ste	.	4G\	-ste	.	4e-\	-ste	.	4a-\	-ste	.
4F\	.	.	4A-\	.	.	4d\	.	.	4b-\	.	.
4G\	e-	.	4B-\	e-	.	4e-\	e-	.	2cc\	e-	.
4A-\	.	.	4c\	.	.	4f\	.	.	.	.	.
=47	=47	=47	=47	=47	=47	=47	=47	=47	=47	=47	=47
!LO:LB:g=original	!	!	!LO:LB:g=original	!	!	!LO:LB:g=original	!	!	!LO:LB:g=original	!	!
2B-\	-lei-	.	2B-\	-lei-	.	2e-\	-lei-	.	2g/	-lei-	.
2BB-/	-son	.	2B-\	-son	.	2d\	-son	.	2f/	-son	.
2r	.	.	2r	.	.	2r	.	.	2r	.	.
=48	=48	=48	=48	=48	=48	=48	=48	=48	=48	=48	=48
4BB-/	Chri-	.	1d	Chri-	.	1a-X	Chri-	.	1ff	Chri-	.
4D/	.	.	.	.	.	.	.	.	.	.	.
4F\	.	.	.	.	.	.	.	.	.	.	.
4A-X\	.	.	.	.	.	.	.	.	.	.	.
4F\	-ste	.	2d\	-ste	.	2a-\	-ste	.	2ff\	-ste	.
4D\	.	.	.	.	.	.	.	.	.	.	.
=49	=49	=49	=49	=49	=49	=49	=49	=49	=49	=49	=49
4E-/	e-	.	1.B-	e-	.	1.g	e-	.	1.ee-	e-	.
4BB-/	.	.	.	.	.	.	.	.	.	.	.
4G\	.	.	.	.	.	.	.	.	.	.	.
4E-\	.	.	.	.	.	.	.	.	.	.	.
4B-\	.	.	.	.	.	.	.	.	.	.	.
4G\	.	.	.	.	.	.	.	.	.	.	.
=50	=50	=50	=50	=50	=50	=50	=50	=50	=50	=50	=50
4A-\	-lei-	.	1.B-	-lei-	.	4f\	-lei-	.	4dd\	-lei-	.
4F\	.	.	.	.	.	4a-\	.	.	4ff\	.	.
4G\	.	.	.	.	.	4g\	.	.	4ee-\	.	.
4A-\	.	.	.	.	.	4f\	.	.	4dd\	.	.
4B-\	.	.	.	.	.	2f\	.	.	4ee-\	.	.
4BB-/	.	.	.	.	.	.	.	.	4dd\	.	.
=51	=51	=51	=51	=51	=51	=51	=51	=51	=51	=51	=51
1C	-son	.	1c	-son	.	1g	-son	.	1ee-	-son	.
2r;	.	.	2r;	.	.	2r;	.	.	2r;	.	.
=52	=52	=52	=52	=52	=52	=52	=52	=52	=52	=52	=52
4BB-/	Chri-	.	1d	Chri-	.	1a-X	Chri-	.	1ff	Chri-	.
4D/	.	.	.	.	.	.	.	.	.	.	.
4F\	-ste	.	.	.	.	.	.	.	.	.	.
4A-X\	.	.	.	.	.	.	.	.	.	.	.
!LO:LB:g=original	!	!	!	!	!	!	!	!	!	!	!
4F\	e-	.	2d\	-ste	.	2a-\	-ste	.	2ff\	-ste	.
4D\	.	.	.	.	.	.	.	.	.	.	.
=53	=53	=53	=53	=53	=53	=53	=53	=53	=53	=53	=53
4E-\	-lei-	.	1.B-	e-	.	1.g	e-	.	1.ee-	e-	.
4BB-\	.	.	.	.	.	.	.	.	.	.	.
4G\	.	.	.	.	.	.	.	.	.	.	.
4E-\	.	.	.	.	.	.	.	.	.	.	.
4B-\	.	.	.	.	.	.	.	.	.	.	.
4G\	.	.	.	.	.	.	.	.	.	.	.
=54	=54	=54	=54	=54	=54	=54	=54	=54	=54	=54	=54
!	!	!	!	!	!	!	!	!	!LO:LB:g=original	!	!
4A-\	.	.	1.B-	-lei-	.	4f\	-lei-	.	4dd\	-lei-	.
4F\	.	.	.	.	.	4a-\	.	.	4ff\	.	.
4G\	.	.	.	.	.	4g\	.	.	4ee-\	.	.
4A-\	.	.	.	.	.	4f\	.	.	4dd\	.	.
4B-\	.	.	.	.	.	4g\	.	.	4ee-\	.	.
4BB-/	.	.	.	.	.	4f\	.	.	4dd\	.	.
=55	=55	=55	=55	=55	=55	=55	=55	=55	=55	=55	=55
1E-	-son	.	1B-	-son.	.	1g	-son	.	1ee-	-son.	.
2r	.	.	2r	.	.	2ryy	.	.	2r	.	.
=56||	=56||	=56||	=56||	=56||	=56||	=56||	=56||	=56||	=56||	=56||	=56||
*k[b-e-a-]	*	*	*k[b-e-a-]	*	*	*k[b-e-a-]	*	*	*k[b-e-a-]	*	*
*M2/2	*	*	*M2/2	*	*	*M2/2	*	*	*M2/2	*	*
*met(c|)	*	*	*met(c|)	*	*	*met(c|)	*	*	*met(c|)	*	*
!LO:TX:t=P:problem=kolejność znaków&colon;AA-, E-, BB-	!	!	!	!	!	!	!	!	!	!	!
!LO:LB:g=original	!	!	!LO:LB:g=original	!	!	!LO:LB:g=original	!	!	!LO:LB:g=original	!	!
!LO:TX:a:t=andte	!	!	!LO:TX:a:t=andte	!	!	!LO:TX:a:t=andte	!	!	!LO:TX:a:t=andte	!	!
4.C\	Ky-	.	4.c\	Ky-	.	4.g\	Ky-	.	4.ee-\	Ky-	.
8D\	-ri-	.	8G/	-ri-	.	8f\	-ri-	.	8dd\	-ri-	.
4E-\	-e	.	4G/	-e	.	4e-\	-e	.	4cc\	-e	.
4G\	e-	.	4Bn/	e-	.	4f\	e-	.	4dd\	e-	.
=57	=57	=57	=57	=57	=57	=57	=57	=57	=57	=57	=57
4c\	-lei-	.	4G/	-lei-	.	4e-\	-lei-	.	4cc\	-lei-	.
4G\	-son	.	4G/	-son	.	4d\	-son	.	4bn\	-son	.
4Bn\	e-	.	2Bn\	e-	.	2g\	e-	.	2dd\	e-	.
4G\	.	.	.	.	.	.	.	.	.	.	.
=58	=58	=58	=58	=58	=58	=58	=58	=58	=58	=58	=58
2C\	-lei-	.	4c\	-lei-	.	1g	-lei-	.	4ee-\	-lei-	.
!	!	!	!LO:SIC:v:s=8Bn	!	!	!	!	!	!	!	!
.	.	.	8B-\L	.	.	.	.	.	8dd\L	.	.
.	.	.	8c\J	.	.	.	.	.	8ee-\J	.	.
4E-\	.	.	4d\	.	.	.	.	.	4ff\	.	.
4F#X\	.	.	4c\	.	.	.	.	.	4ee-\	.	.
=59	=59	=59	=59	=59	=59	=59	=59	=59	=59	=59	=59
2G\	-son	.	2Bn\	-son	.	2g\	-son	.	2dd\	-son	.
2r	.	.	2r	.	.	2r	.	.	2r	.	.
=60	=60	=60	=60	=60	=60	=60	=60	=60	=60	=60	=60
!	!	!LO:DY:a:t=p.	!	!	!LO:DY:a:t=p&colon;	!	!	!LO:DY:a:t=p&colon;	!	!	!LO:DY:a:t=p&colon;
4.C\	Ky-	p	4.c\	Ky-	p	4.g\	Ky-	p	4.ee-\	Ky-	p
8D\	-ri-	.	8G\	-ri-	.	8g\	-ri-	.	8dd\	-ri-	.
4E-\	-e	.	4G\	-e	.	4e-\	-e	.	4cc\	-e	.
!	!	!	!	!	!	!	!	!	!LO:TX:b:t=Verte	!	!
4G\	e-	.	4Bn\	e-	.	4f\	e-	.	4dd\	e-	.
=61	=61	=61	=61	=61	=61	=61	=61	=61	=61	=61	=61
!	!	!	!LO:LB:g=original	!	!	!	!	!	!LO:PB:g=original	!	!
4c\	-lei-	.	4G/	-lei-	.	4e-\	-lei-	.	4cc\	-lei-	.
4G\	-son	.	4G/	son	.	4d\	-son	.	4bn\	-son	.
4Bn\	e-	.	2Bn\	e-	.	2g\	e-	.	2dd\	e-	.
!LO:TX:b:t=Verte	!	!	!	!	!	!	!	!	!	!	!
4G\	.	.	.	.	.	.	.	.	.	.	.
=62	=62	=62	=62	=62	=62	=62	=62	=62	=62	=62	=62
!LO:PB:g=original	!	!	!	!	!	!LO:LB:g=original	!	!	!	!	!
2C/	-lei-	.	4c\	-lei-	.	1g	-lei-	.	4ee-\	-lei-	.
!	!	!	!LO:SIC:v:s=8Bn	!	!	!	!	!	!	!	!
.	.	.	8B-\L	.	.	.	.	.	8dd\L	.	.
.	.	.	8c\J	.	.	.	.	.	8ee-\J	.	.
4E-\	.	.	4d\	.	.	.	.	.	4ff\	.	.
4F#X\	.	.	4c\	.	.	.	.	.	4ee-\	.	.
=63	=63	=63	=63	=63	=63	=63	=63	=63	=63	=63	=63
2G\	-son	.	2Bn\	-son	.	2g\	-son	.	2dd\	-son	.
2r	.	.	2r	.	.	2r	.	.	2r	.	.
=64	=64	=64	=64	=64	=64	=64	=64	=64	=64	=64	=64
!	!	!	!	!	!LO:DY:a:t=for	!	!	!LO:DY:a:t=for	!	!	!LO:DY:a
4.E-\	Ky-	.	4.B-\	Ky-	f	4.g\	Ky-	f	4.ee-\	Ky-	f
8F\	-ri-	.	8B-\	-ri-	.	8a-\	-ri-	.	8dd\	-ri-	.
4G\	-e	.	4B-\	-e	.	4g\	-e	.	4ee-\	-e	.
4A-\	e-	.	4B-\	e-	.	4f\	e-	.	4dd\	e-	.
=65	=65	=65	=65	=65	=65	=65	=65	=65	=65	=65	=65
4G\	-lei-	.	4B-\	-lei-	.	4g\	-lei-	.	4ee-\	-lei-	.
4E-\	-son,	.	4B-\	-son	.	4g\	-son	.	4ee-\	-son	.
4r	.	.	4r	.	.	4r	.	.	4r	.	.
4E-\	e-	.	4B-\	e-	.	4g\	e-	.	4ee-\	e-	.
=66	=66	=66	=66	=66	=66	=66	=66	=66	=66	=66	=66
1BB-	-lei-	.	2B-\	-lei-	.	4f\	-lei-	.	4dd\	-lei-	.
.	.	.	.	.	.	4g\	.	.	4ee-\	.	.
.	.	.	4d\	.	.	4a-\	.	.	4ff\	.	.
!	!	!	!LO:TX:b:t=Verte	!	!	!	!	!	!	!	!
.	.	.	4B-\	.	.	4f\	.	.	4dd\	.	.
=67	=67	=67	=67	=67	=67	=67	=67	=67	=67	=67	=67
!	!	!	!LO:PB:g=original	!	!	!	!	!	!	!	!
2E-\	-son	.	2B-\	-son	.	2g\	-son	.	2ee-\	son	.
4r	.	.	4r	.	.	4r	.	.	4r	.	.
4C/	e-	.	4c\	e-	.	4e-\	e-	.	4cc\	e-	.
=68	=68	=68	=68	=68	=68	=68	=68	=68	=68	=68	=68
!	!	!	!	!	!	!	!	!	!LO:LB:g=original	!	!
1GG	-lei-	.	4d\	-lei-	.	4d\	-lei-	.	4bn\	-lei-	.
.	.	.	4c\	.	.	4e-\	.	.	4cc\	.	.
.	.	.	4Bn\	.	.	4f\	.	.	4dd\	.	.
!	!	!	!	!	!	!LO:TX:b:t=Verte	!	!	!	!	!
.	.	.	4G/	.	.	4d\	.	.	4b\	.	.
=69	=69	=69	=69	=69	=69	=69	=69	=69	=69	=69	=69
!	!	!	!	!	!	!LO:LB:g=original	!	!	!LO:N:vis=8	!	!
4C/	son	.	4G/	-son	.	4e-\	-son	.	4cc\	-son	.
4C/	e-	.	4G/	e-	.	4g\	e-	.	4ee-\	e-	.
4C/	-lei-	.	2G/	-lei-	.	4g\	-lei-	.	4ee-\	-lei-	.
8BBn/L	.	.	.	.	.	8f\L	.	.	8dd\L	.	.
8C/J	.	.	.	.	.	8e-\J	.	.	8cc\J	.	.
=70	=70	=70	=70	=70	=70	=70	=70	=70	=70	=70	=70
!LO:LB:g=original	!	!	!	!	!	!	!	!	!	!	!
4G\	.	.	4G/	.	.	4e-\	.	.	4cc\	.	.
4GG/	-son.	.	4G/	-son	.	4d\	-son	.	4bn\	-son	.
2r	.	.	2r	.	.	2r	.	.	2r	.	.
=71	=71	=71	=71	=71	=71	=71	=71	=71	=71	=71	=71
4.A-\	Ky-	.	4.d\	Ky-	.	4.d\	Ky-	.	4.bn\	Ky-	.
8G\	-ri-	.	8c\	-ri-	.	8e-\	-ri-	.	8cc\	-ri-	.
4.F\	-e	.	4.Bn\	-e	.	4.f\	-e	.	4.dd\	-e	.
8E-\	e-	.	8c\	e-	.	8g\	e-	.	8ee-\	e-	.
=72	=72	=72	=72	=72	=72	=72	=72	=72	=72	=72	=72
!	!	!	!LO:SIC:v:s=4.Bn	!	!	!	!	!	!	!	!
4.D/	-lei-	.	4.B-\	-lei-	.	4.f\	-lei-	.	4.dd\	-lei-	.
8C/	.	.	8c\	.	.	8g\	.	.	8ee-\	.	.
2BBn;/	-son	.	2d;\	-son	.	2a-X;\	-son	.	2ff;\	-son	.
=73	=73	=73	=73	=73	=73	=73	=73	=73	=73	=73	=73
4.C\	Ky-	.	4.c\	Ky-	.	4.g\	Ky-	.	4.ee-\	Ky-	.
8D\	-ri-	.	8Bn\	-ri-	.	8a-\	-ri-	.	8ff\	-ri-	.
!	!	!	!LO:LB:g=original	!	!	!	!	!	!	!	!
4.E-\	-e	.	4.c\	-e	.	4.g\	-e	.	4.ee-\	-e	.
8F\	e-	.	8Bn\	e-	.	8a-\	e-	.	8dd\	e-	.
=74	=74	=74	=74	=74	=74	=74	=74	=74	=74	=74	=74
!	!	!	!	!	!	!LO:LB:g=original	!	!	!LO:LB:g=original	!	!
4.E-\	-lei-	.	4.c\	-lei-	.	4.g\	-lei-	.	4.cc\	-lei-	.
!	!	!	!LO:SIC:v:s=8Bn	!	!	!	!	!	!	!	!
8F\	.	.	8B-\	.	.	8a-\	.	.	8dd\	.	.
4.G\	.	.	4c\	.	.	2g\	.	.	4ee-\	.	.
!	!	!	!LO:SIC:v:s=4Bn	!	!	!	!	!	!	!	!
.	.	.	4B-\	.	.	.	.	.	4dd\	.	.
8GG/	.	.	.	.	.	.	.	.	.	.	.
=75	=75	=75	=75	=75	=75	=75	=75	=75	=75	=75	=75
2C/	-son	.	2c\	-son	.	2g\	-son	.	2ee-\	-son	.
2r	.	.	2r	.	.	2r	.	.	2r	.	.
=76	=76	=76	=76	=76	=76	=76	=76	=76	=76	=76	=76
!LO:LB:g=original	!	!LO:DY:a:t=p&colon;	!	!	!LO:DY:a	!	!	!LO:DY:a:t=p&colon;	!	!	!LO:DY:a
4.A-\	Ky-	p	4.d\	Ky-	p	4.d\	Ky-	p	4.bn\	Ky-	p
8G\	-ri-	.	8c\	-ri-	.	8e-\	-ri-	.	8cc\	-ri-	.
4.F\	-e	.	4.Bn\	-e	.	4.f\	-e	.	4.dd\	-e	.
8E-\	e-	.	8c\	e-	.	8g\	e-	.	8ee-\	e-	.
=77	=77	=77	=77	=77	=77	=77	=77	=77	=77	=77	=77
!	!	!	!LO:SIC:v:s=4.Bn	!	!	!	!	!	!	!	!
4.D/	-lei-	.	4.B-\	-lei-	.	4.f\	-lei-	.	4.dd\	-lei-	.
8C/	.	.	8c\	.	.	8g\	.	.	8ee-\	.	.
2BBn;/	-son	.	2d;\	-son	.	2a-X;\	-son	.	2ff;\	-son	.
=78	=78	=78	=78	=78	=78	=78	=78	=78	=78	=78	=78
!	!	!LO:DY:a:t=for	!	!	!LO:DY:a:t=for	!	!	!LO:DY:a	!	!	!LO:DY:a:t=fo
4.C/	Ky-	f	4.c\	Ky-	f	4.g\	Ky-	f	4.ee-\	Ky-	f
8D/	-ri-	.	8Bn\	-ri-	.	8a-\	-ri-	.	8ff\	-ri-	.
4.E-\	-e	.	4.c\	-e	.	4.g\	-e	.	4.ee-\	-e	.
8F\	e-	.	8B\	e-	.	8a-\	e-	.	8dd\	e-	.
=79	=79	=79	=79	=79	=79	=79	=79	=79	=79	=79	=79
!	!	!	!LO:LB:g=original	!	!	!	!	!	!	!	!
4.E-\	-lei-	.	4.c\	-lei-	.	4.g\	-lei-	.	4.cc\	-lei-	.
8F\	.	.	8Bn\	.	.	8a-\	.	.	8dd\	.	.
4.G\	.	.	4c\	.	.	2g\	.	.	4ee-\	.	.
.	.	.	4B\	.	.	.	.	.	4dd\	.	.
8GG/	.	.	.	.	.	.	.	.	.	.	.
=80	=80	=80	=80	=80	=80	=80	=80	=80	=80	=80	=80
1C	-son.	.	1c	-son.	.	1g	-son	.	1een	-son.	.
==	==	==	==	==	==	==	==	==	==	==	==
*-	*-	*-	*-	*-	*-	*-	*-	*-	*-	*-	*-
!!!system-decoration: [(s1,s2,s3,s4)]
!!!ENC: Krzysztof Stępień
!!!END: 2021-07-07
!!!YEC: Copyright 2022 Narodowy Instytut Fryderyka Chopina (https://polishscores.org)
!!!YEM: License CC-BY-4.0 (https://creativecommons.org/licenses/by/4.0)
